raw/05_PRODUCTION/_preset_backups/SNIPED_BW_EDITORIAL_v1.xmp
<x:xmpmeta xmlns:x="adobe:ns:meta/" x:xmptk="SNIPED Preset Generator v1">
 <rdf:RDF xmlns:rdf="http://www.w3.org/1999/02/22-rdf-syntax-ns#">
  <rdf:Description rdf:about=""
    xmlns:crs="http://ns.adobe.com/camera-raw-settings/1.0/"
   crs:PresetType="Normal"
   crs:Cluster=""
   crs:UUID="A1B2C3D4E5F6478A9012345678901005"
   crs:SupportsAmount2="True"
   crs:SupportsAmount="True"
   crs:SupportsColor="False"
   crs:SupportsMonochrome="True"
   crs:SupportsHighDynamicRange="True"
   crs:SupportsNormalDynamicRange="True"
   crs:SupportsSceneReferred="True"
   crs:SupportsOutputReferred="True"
   crs:RequiresRGBTables="False"
   crs:ShowInPresets="True"
   crs:ShowInQuickActions="False"
   crs:CameraModelRestriction=""
   crs:Copyright="2026 SNIPED Media"
   crs:ContactInfo="snipedmedia.com"
   crs:Version="18.2.2"
   crs:ProcessVersion="15.4"
   crs:CameraProfile="Adobe Monochrome"
   crs:LensProfileEnable="1"
   crs:AutoLateralCA="1"
   crs:Sharpness="50"
   crs:SharpenRadius="+1.0"
   crs:SharpenDetail="30"
   crs:SharpenEdgeMasking="0"
   crs:LuminanceSmoothing="0"
   crs:ColorNoiseReduction="25"
   crs:ConvertToGrayscale="True"
   crs:GrayMixerRed="0"
   crs:GrayMixerOrange="+30"
   crs:GrayMixerYellow="+20"
   crs:GrayMixerGreen="0"
   crs:GrayMixerAqua="-10"
   crs:GrayMixerBlue="-20"
   crs:GrayMixerPurple="0"
   crs:GrayMixerMagenta="0"
   crs:Clarity2012="+5"
   crs:Texture="+3"
   crs:ParametricShadows="0"
   crs:ParametricDarks="-10"
   crs:ParametricLights="-5"
   crs:ParametricHighlights="-15"
   crs:ParametricShadowSplit="25"
   crs:ParametricMidtoneSplit="50"
   crs:ParametricHighlightSplit="75"
   crs:GrainAmount="25"
   crs:GrainSize="30"
   crs:GrainFrequency="50"
   crs:ToneCurveName2012="Linear"
   crs:HasSettings="True">
   <crs:Name>
    <rdf:Alt>
     <rdf:li xml:lang="x-default">SNIPED_BW_EDITORIAL_v1</rdf:li>
    </rdf:Alt>
   </crs:Name>
   <crs:ShortName>
    <rdf:Alt>
     <rdf:li xml:lang="x-default">SNIPED B&amp;W Editorial v1</rdf:li>
    </rdf:Alt>
   </crs:ShortName>
   <crs:SortName>
    <rdf:Alt>
     <rdf:li xml:lang="x-default">SNIPED 05 BW Editorial v1</rdf:li>
    </rdf:Alt>
   </crs:SortName>
   <crs:Group>
    <rdf:Alt>
     <rdf:li xml:lang="x-default">SNIPED · Locked</rdf:li>
    </rdf:Alt>
   </crs:Group>
   <crs:Description>
    <rdf:Alt>
     <rdf:li xml:lang="x-default">SNIPED Black-and-White Editorial v1. For Op Kit / Brand System editorial register. Adobe Monochrome profile, B&amp;W mix tuned for skin glow (orange +30 / yellow +20) and sky drama (blue -20 / aqua -10), strong S-curve contrast (darks -10 / highlights -15), intentional film grain (amount 25 / size 30). Use selectively on Brand System tier work or editorial standalone frames.</rdf:li>
    </rdf:Alt>
   </crs:Description>
  </rdf:Description>
 </rdf:RDF>
</x:xmpmeta>
