raw/05_PRODUCTION/_preset_backups/SNIPED_LOCKED_LOOK_v3_LUXURY.xmp
<x:xmpmeta xmlns:x="adobe:ns:meta/" x:xmptk="SNIPED Preset Generator v3">
 <rdf:RDF xmlns:rdf="http://www.w3.org/1999/02/22-rdf-syntax-ns#">
  <rdf:Description rdf:about=""
    xmlns:crs="http://ns.adobe.com/camera-raw-settings/1.0/"
   crs:PresetType="Normal"
   crs:Cluster=""
   crs:UUID="A1B2C3D4E5F6478A9012345678901103"
   crs:SupportsAmount2="True"
   crs:SupportsAmount="True"
   crs:SupportsColor="True"
   crs:SupportsMonochrome="False"
   crs:SupportsHighDynamicRange="True"
   crs:SupportsNormalDynamicRange="True"
   crs:SupportsSceneReferred="True"
   crs:SupportsOutputReferred="True"
   crs:RequiresRGBTables="False"
   crs:ShowInPresets="True"
   crs:ShowInQuickActions="False"
   crs:CameraModelRestriction=""
   crs:Copyright="2026 SNIPED Media"
   crs:ContactInfo="snipedmedia.com"
   crs:Version="18.2.2"
   crs:ProcessVersion="15.4"
   crs:CameraProfile="Adobe Neutral"
   crs:LensProfileEnable="1"
   crs:AutoLateralCA="1"
   crs:Sharpness="35"
   crs:SharpenRadius="+1.0"
   crs:SharpenDetail="20"
   crs:SharpenEdgeMasking="30"
   crs:LuminanceSmoothing="0"
   crs:ColorNoiseReduction="25"
   crs:ColorNoiseReductionDetail="50"
   crs:ColorNoiseReductionSmoothness="50"
   crs:Texture="-5"
   crs:Clarity2012="-3"
   crs:Dehaze="0"
   crs:Vibrance="0"
   crs:Saturation="-8"
   crs:HueAdjustmentRed="0"
   crs:HueAdjustmentOrange="-3"
   crs:HueAdjustmentYellow="-8"
   crs:HueAdjustmentGreen="-5"
   crs:HueAdjustmentAqua="0"
   crs:HueAdjustmentBlue="-5"
   crs:HueAdjustmentPurple="0"
   crs:HueAdjustmentMagenta="0"
   crs:SaturationAdjustmentRed="-5"
   crs:SaturationAdjustmentOrange="-3"
   crs:SaturationAdjustmentYellow="-15"
   crs:SaturationAdjustmentGreen="-15"
   crs:SaturationAdjustmentAqua="-10"
   crs:SaturationAdjustmentBlue="-8"
   crs:SaturationAdjustmentPurple="-10"
   crs:SaturationAdjustmentMagenta="-10"
   crs:LuminanceAdjustmentRed="0"
   crs:LuminanceAdjustmentOrange="+3"
   crs:LuminanceAdjustmentYellow="-5"
   crs:LuminanceAdjustmentGreen="-8"
   crs:LuminanceAdjustmentAqua="-5"
   crs:LuminanceAdjustmentBlue="-5"
   crs:LuminanceAdjustmentPurple="0"
   crs:LuminanceAdjustmentMagenta="0"
   crs:SplitToningShadowHue="215"
   crs:SplitToningShadowSaturation="6"
   crs:SplitToningHighlightHue="45"
   crs:SplitToningHighlightSaturation="5"
   crs:SplitToningBalance="0"
   crs:ColorGradeMidtoneHue="35"
   crs:ColorGradeMidtoneSat="4"
   crs:ColorGradeShadowLum="-5"
   crs:ColorGradeMidtoneLum="0"
   crs:ColorGradeHighlightLum="+3"
   crs:ColorGradeBlending="50"
   crs:ColorGradeGlobalHue="0"
   crs:ColorGradeGlobalSat="0"
   crs:ColorGradeGlobalLum="0"
   crs:CurveRefineSaturation="100"
   crs:GrainAmount="15"
   crs:GrainSize="25"
   crs:GrainFrequency="50"
   crs:RedHue="+5"
   crs:RedSaturation="+5"
   crs:GreenHue="-8"
   crs:GreenSaturation="-5"
   crs:BlueHue="0"
   crs:BlueSaturation="+12"
   crs:ConvertToGrayscale="False"
   crs:ToneCurveName2012="Custom"
   crs:HasSettings="True">
   <crs:Name>
    <rdf:Alt>
     <rdf:li xml:lang="x-default">SNIPED_LOCKED_LOOK_v3_LUXURY</rdf:li>
    </rdf:Alt>
   </crs:Name>
   <crs:ShortName>
    <rdf:Alt>
     <rdf:li xml:lang="x-default">SNIPED Locked v3 Luxury</rdf:li>
    </rdf:Alt>
   </crs:ShortName>
   <crs:SortName>
    <rdf:Alt>
     <rdf:li xml:lang="x-default">SNIPED 01 Locked v3 Luxury</rdf:li>
    </rdf:Alt>
   </crs:SortName>
   <crs:Group>
    <rdf:Alt>
     <rdf:li xml:lang="x-default">SNIPED · Locked</rdf:li>
    </rdf:Alt>
   </crs:Group>
   <crs:Description>
    <rdf:Alt>
     <rdf:li xml:lang="x-default">SNIPED locked-look v3 LUXURY EDITORIAL · the quiet luxury direction (locked 2026-05-12). Adobe Neutral foundation, restrained presence (Texture -5 / Clarity -3 / Saturation -8), HSL light-hand correction (Orange Hue -3 for skin, Yellow Sat -15 to kill digital yellow, Green Sat -15 for muted greens), Color Grading at sat under 8 (Shadows 215/6, Midtones 35/4, Highlights 45/5, Blending 50), Calibration as foundation (Red Hue +5 Sat +5, Green Hue -8 Sat -5, Blue Sat +12), soft S point curve with lifted blacks and creamy highlight roll-off (0,14 / 35,32 / 128,128 / 205,215 / 255,240), per-channel curves at restraint, subtle film grain (amount 15 / size 25 / frequency 50). Built for Canon R6 II RAWs in the Meisel / Roversi / Mert and Marcus lane, NOT cinematic compositing. Apply via import preset. v2 retained as version history.</rdf:li>
    </rdf:Alt>
   </crs:Description>
   <crs:ToneCurvePV2012>
    <rdf:Seq>
     <rdf:li>0, 14</rdf:li>
     <rdf:li>35, 32</rdf:li>
     <rdf:li>128, 128</rdf:li>
     <rdf:li>205, 215</rdf:li>
     <rdf:li>255, 240</rdf:li>
    </rdf:Seq>
   </crs:ToneCurvePV2012>
   <crs:ToneCurvePV2012Red>
    <rdf:Seq>
     <rdf:li>0, 0</rdf:li>
     <rdf:li>64, 62</rdf:li>
     <rdf:li>192, 196</rdf:li>
     <rdf:li>255, 255</rdf:li>
    </rdf:Seq>
   </crs:ToneCurvePV2012Red>
   <crs:ToneCurvePV2012Green>
    <rdf:Seq>
     <rdf:li>0, 4</rdf:li>
     <rdf:li>64, 62</rdf:li>
     <rdf:li>192, 194</rdf:li>
     <rdf:li>255, 253</rdf:li>
    </rdf:Seq>
   </crs:ToneCurvePV2012Green>
   <crs:ToneCurvePV2012Blue>
    <rdf:Seq>
     <rdf:li>0, 6</rdf:li>
     <rdf:li>64, 64</rdf:li>
     <rdf:li>192, 192</rdf:li>
     <rdf:li>255, 245</rdf:li>
    </rdf:Seq>
   </crs:ToneCurvePV2012Blue>
  </rdf:Description>
 </rdf:RDF>
</x:xmpmeta>
