raw/05_PRODUCTION/_preset_backups/SNIPED_LOCKED_LOOK_v1.xmp
<x:xmpmeta xmlns:x="adobe:ns:meta/" x:xmptk="SNIPED Preset Generator v1">
 <rdf:RDF xmlns:rdf="http://www.w3.org/1999/02/22-rdf-syntax-ns#">
  <rdf:Description rdf:about=""
    xmlns:crs="http://ns.adobe.com/camera-raw-settings/1.0/"
   crs:PresetType="Normal"
   crs:Cluster=""
   crs:UUID="A1B2C3D4E5F6478A9012345678901001"
   crs:SupportsAmount2="True"
   crs:SupportsAmount="True"
   crs:SupportsColor="True"
   crs:SupportsMonochrome="False"
   crs:SupportsHighDynamicRange="True"
   crs:SupportsNormalDynamicRange="True"
   crs:SupportsSceneReferred="True"
   crs:SupportsOutputReferred="True"
   crs:RequiresRGBTables="False"
   crs:ShowInPresets="True"
   crs:ShowInQuickActions="False"
   crs:CameraModelRestriction=""
   crs:Copyright="2026 SNIPED Media"
   crs:ContactInfo="snipedmedia.com"
   crs:Version="18.2.2"
   crs:ProcessVersion="15.4"
   crs:CameraProfile="Adobe Color"
   crs:LensProfileEnable="1"
   crs:AutoLateralCA="1"
   crs:Sharpness="40"
   crs:SharpenRadius="+1.0"
   crs:SharpenDetail="25"
   crs:SharpenEdgeMasking="0"
   crs:LuminanceSmoothing="0"
   crs:LuminanceNoiseReductionDetail="50"
   crs:LuminanceNoiseReductionContrast="0"
   crs:ColorNoiseReduction="25"
   crs:ColorNoiseReductionDetail="50"
   crs:ColorNoiseReductionSmoothness="50"
   crs:ParametricShadows="+5"
   crs:ParametricDarks="-3"
   crs:ParametricLights="-3"
   crs:ParametricHighlights="-8"
   crs:ParametricShadowSplit="25"
   crs:ParametricMidtoneSplit="50"
   crs:ParametricHighlightSplit="75"
   crs:HueAdjustmentRed="0"
   crs:HueAdjustmentOrange="0"
   crs:HueAdjustmentYellow="0"
   crs:HueAdjustmentGreen="0"
   crs:HueAdjustmentAqua="0"
   crs:HueAdjustmentBlue="0"
   crs:HueAdjustmentPurple="0"
   crs:HueAdjustmentMagenta="0"
   crs:SaturationAdjustmentRed="0"
   crs:SaturationAdjustmentOrange="-2"
   crs:SaturationAdjustmentYellow="-5"
   crs:SaturationAdjustmentGreen="-15"
   crs:SaturationAdjustmentAqua="-15"
   crs:SaturationAdjustmentBlue="-10"
   crs:SaturationAdjustmentPurple="0"
   crs:SaturationAdjustmentMagenta="0"
   crs:LuminanceAdjustmentRed="0"
   crs:LuminanceAdjustmentOrange="+5"
   crs:LuminanceAdjustmentYellow="0"
   crs:LuminanceAdjustmentGreen="-5"
   crs:LuminanceAdjustmentAqua="0"
   crs:LuminanceAdjustmentBlue="0"
   crs:LuminanceAdjustmentPurple="0"
   crs:LuminanceAdjustmentMagenta="0"
   crs:RedHue="+3"
   crs:RedSaturation="0"
   crs:GreenHue="0"
   crs:GreenSaturation="0"
   crs:BlueHue="0"
   crs:BlueSaturation="+5"
   crs:ConvertToGrayscale="False"
   crs:ToneCurveName2012="Linear"
   crs:HasSettings="True">
   <crs:Name>
    <rdf:Alt>
     <rdf:li xml:lang="x-default">SNIPED_LOCKED_LOOK_v1</rdf:li>
    </rdf:Alt>
   </crs:Name>
   <crs:ShortName>
    <rdf:Alt>
     <rdf:li xml:lang="x-default">SNIPED Locked v1</rdf:li>
    </rdf:Alt>
   </crs:ShortName>
   <crs:SortName>
    <rdf:Alt>
     <rdf:li xml:lang="x-default">SNIPED 01 Locked v1</rdf:li>
    </rdf:Alt>
   </crs:SortName>
   <crs:Group>
    <rdf:Alt>
     <rdf:li xml:lang="x-default">SNIPED · Locked</rdf:li>
    </rdf:Alt>
   </crs:Group>
   <crs:Description>
    <rdf:Alt>
     <rdf:li xml:lang="x-default">SNIPED locked-look v1. Base layer applied to every photo on import. Adobe Color profile, lens corrections + CA, locked tone curve (modest S-curve with skin protection: shadows +5 / darks -3 / lights -3 / highlights -8), HSL with skin-warm + background-desat, calibration signature shifts (red hue +3, blue sat +5), sharpening 40, color NR 25. Tune to v2 quarterly against 5 representative SNIPED frames.</rdf:li>
    </rdf:Alt>
   </crs:Description>
  </rdf:Description>
 </rdf:RDF>
</x:xmpmeta>
