raw/05_PRODUCTION/_preset_backups/SNIPED_HERO_FINISH_v1.xmp
<x:xmpmeta xmlns:x="adobe:ns:meta/" x:xmptk="SNIPED Preset Generator v1">
 <rdf:RDF xmlns:rdf="http://www.w3.org/1999/02/22-rdf-syntax-ns#">
  <rdf:Description rdf:about=""
    xmlns:crs="http://ns.adobe.com/camera-raw-settings/1.0/"
   crs:PresetType="Normal"
   crs:Cluster=""
   crs:UUID="A1B2C3D4E5F6478A9012345678901002"
   crs:SupportsAmount2="True"
   crs:SupportsAmount="True"
   crs:SupportsColor="True"
   crs:SupportsMonochrome="False"
   crs:SupportsHighDynamicRange="True"
   crs:SupportsNormalDynamicRange="True"
   crs:SupportsSceneReferred="True"
   crs:SupportsOutputReferred="True"
   crs:RequiresRGBTables="False"
   crs:ShowInPresets="True"
   crs:ShowInQuickActions="False"
   crs:CameraModelRestriction=""
   crs:Copyright="2026 SNIPED Media"
   crs:ContactInfo="snipedmedia.com"
   crs:Version="18.2.2"
   crs:ProcessVersion="15.4"
   crs:GrainAmount="12"
   crs:GrainSize="25"
   crs:GrainFrequency="50"
   crs:SaturationAdjustmentOrange="-4"
   crs:Clarity2012="-5"
   crs:HasSettings="True">
   <crs:Name>
    <rdf:Alt>
     <rdf:li xml:lang="x-default">SNIPED_HERO_FINISH_v1</rdf:li>
    </rdf:Alt>
   </crs:Name>
   <crs:ShortName>
    <rdf:Alt>
     <rdf:li xml:lang="x-default">SNIPED Hero Finish v1</rdf:li>
    </rdf:Alt>
   </crs:ShortName>
   <crs:SortName>
    <rdf:Alt>
     <rdf:li xml:lang="x-default">SNIPED 02 Hero Finish v1</rdf:li>
    </rdf:Alt>
   </crs:SortName>
   <crs:Group>
    <rdf:Alt>
     <rdf:li xml:lang="x-default">SNIPED · Locked</rdf:li>
    </rdf:Alt>
   </crs:Group>
   <crs:Description>
    <rdf:Alt>
     <rdf:li xml:lang="x-default">SNIPED hero finish v1. Applied AFTER Evoto round-trip, before final export. Adds subtle film grain (amount 12 / size 25 / freq 50), skin saturation protection (orange -4 to compensate for any Evoto sat boost), background atmospheric softening (clarity -5). Apply only to Heroes, never to Selects or Proofs.</rdf:li>
    </rdf:Alt>
   </crs:Description>
  </rdf:Description>
 </rdf:RDF>
</x:xmpmeta>
