00_COMMAND_CENTER/ALMA_MARGIELA_SAVE_001/06_FULL_CUT/ALMA_LOVE_signature_look_v1.cube
# ALMA LOVE - Signature Look v1 (Deadpan Summer / warm California)
# Video 3D LUT - drop into Premiere(Lumetri), After Effects, Resolve, CapCut, FCPX
# Built from the locked Alma Love campaign grade. Apply at ~85-100% intensity.
LUT_3D_SIZE 9
DOMAIN_MIN 0.0 0.0 0.0
DOMAIN_MAX 1.0 1.0 1.0
0.015686 0.000000 0.000000
0.129412 0.000000 0.000000
0.262745 0.000000 0.000000
0.403922 0.000000 0.000000
0.545098 0.000000 0.000000
0.670588 0.000000 0.000000
0.800000 0.000000 0.000000
0.933333 0.000000 0.000000
1.000000 0.000000 0.000000
0.015686 0.121569 0.000000
0.121569 0.121569 0.000000
0.266667 0.125490 0.000000
0.403922 0.125490 0.000000
0.541176 0.121569 0.000000
0.666667 0.121569 0.000000
0.788235 0.117647 0.000000
0.929412 0.113725 0.000000
1.000000 0.121569 0.000000
0.015686 0.262745 0.000000
0.125490 0.254902 0.000000
0.270588 0.258824 0.000000
0.403922 0.258824 0.000000
0.541176 0.250980 0.000000
0.662745 0.254902 0.000000
0.792157 0.254902 0.000000
0.933333 0.254902 0.000000
1.000000 0.254902 0.000000
0.015686 0.392157 0.000000
0.129412 0.400000 0.000000
0.266667 0.388235 0.000000
0.403922 0.392157 0.000000
0.537255 0.392157 0.000000
0.666667 0.388235 0.000000
0.792157 0.388235 0.000000
0.933333 0.388235 0.000000
1.000000 0.388235 0.000000
0.015686 0.529412 0.000000
0.125490 0.533333 0.000000
0.262745 0.533333 0.000000
0.400000 0.525490 0.000000
0.533333 0.529412 0.000000
0.662745 0.521569 0.000000
0.792157 0.529412 0.000000
0.925490 0.525490 0.000000
1.000000 0.521569 0.000000
0.007843 0.666667 0.000000
0.117647 0.658824 0.000000
0.254902 0.666667 0.000000
0.392157 0.658824 0.000000
0.529412 0.658824 0.000000
0.650980 0.658824 0.000000
0.784314 0.658824 0.000000
0.917647 0.654902 0.000000
1.000000 0.654902 0.000000
0.000000 0.800000 0.000000
0.109804 0.800000 0.000000
0.243137 0.800000 0.000000
0.376471 0.796078 0.000000
0.517647 0.796078 0.000000
0.647059 0.792157 0.000000
0.788235 0.788235 0.000000
0.929412 0.796078 0.000000
1.000000 0.792157 0.000000
0.000000 0.933333 0.000000
0.098039 0.937255 0.000000
0.239216 0.933333 0.000000
0.372549 0.933333 0.000000
0.513725 0.929412 0.000000
0.643137 0.925490 0.000000
0.776471 0.925490 0.000000
0.917647 0.925490 0.000000
1.000000 0.925490 0.000000
0.000000 1.000000 0.000000
0.094118 1.000000 0.000000
0.235294 1.000000 0.000000
0.368627 1.000000 0.000000
0.501961 1.000000 0.000000
0.639216 1.000000 0.000000
0.780392 1.000000 0.000000
0.913725 1.000000 0.000000
1.000000 1.000000 0.000000
0.015686 0.000000 0.094118
0.125490 0.000000 0.086275
0.274510 0.000000 0.101961
0.403922 0.000000 0.094118
0.545098 0.000000 0.098039
0.670588 0.000000 0.098039
0.796078 0.000000 0.109804
0.937255 0.000000 0.105882
1.000000 0.000000 0.109804
0.015686 0.121569 0.098039
0.125490 0.117647 0.086275
0.270588 0.121569 0.098039
0.403922 0.121569 0.098039
0.525490 0.117647 0.101961
0.658824 0.117647 0.105882
0.796078 0.117647 0.105882
0.937255 0.117647 0.105882
1.000000 0.117647 0.109804
0.015686 0.258824 0.086275
0.129412 0.262745 0.098039
0.258824 0.258824 0.094118
0.400000 0.258824 0.090196
0.529412 0.258824 0.098039
0.658824 0.250980 0.098039
0.792157 0.254902 0.105882
0.929412 0.258824 0.101961
1.000000 0.250980 0.105882
0.015686 0.400000 0.094118
0.125490 0.400000 0.090196
0.266667 0.396078 0.098039
0.403922 0.388235 0.086275
0.529412 0.392157 0.098039
0.650980 0.388235 0.105882
0.792157 0.392157 0.105882
0.925490 0.392157 0.109804
1.000000 0.388235 0.098039
0.015686 0.533333 0.098039
0.121569 0.529412 0.094118
0.254902 0.529412 0.098039
0.392157 0.521569 0.101961
0.529412 0.529412 0.098039
0.650980 0.529412 0.101961
0.796078 0.525490 0.098039
0.929412 0.525490 0.105882
1.000000 0.517647 0.098039
0.007843 0.666667 0.101961
0.109804 0.662745 0.109804
0.243137 0.666667 0.101961
0.376471 0.662745 0.113725
0.513725 0.658824 0.101961
0.650980 0.658824 0.101961
0.788235 0.654902 0.094118
0.925490 0.658824 0.105882
1.000000 0.654902 0.094118
0.000000 0.800000 0.105882
0.101961 0.803922 0.113725
0.247059 0.796078 0.101961
0.380392 0.796078 0.101961
0.517647 0.792157 0.101961
0.647059 0.796078 0.101961
0.776471 0.792157 0.090196
0.921569 0.796078 0.098039
1.000000 0.792157 0.094118
0.000000 0.937255 0.101961
0.105882 0.937255 0.101961
0.243137 0.929412 0.101961
0.376471 0.933333 0.101961
0.505882 0.929412 0.090196
0.643137 0.929412 0.101961
0.784314 0.929412 0.094118
0.925490 0.925490 0.094118
1.000000 0.925490 0.086275
0.000000 1.000000 0.101961
0.101961 1.000000 0.101961
0.231373 1.000000 0.090196
0.372549 1.000000 0.101961
0.509804 1.000000 0.094118
0.650980 1.000000 0.094118
0.780392 1.000000 0.094118
0.913725 1.000000 0.094118
1.000000 1.000000 0.082353
0.015686 0.000000 0.227451
0.129412 0.000000 0.227451
0.274510 0.000000 0.235294
0.407843 0.000000 0.239216
0.541176 0.000000 0.227451
0.666667 0.000000 0.247059
0.792157 0.000000 0.247059
0.933333 0.000000 0.250980
1.000000 0.000000 0.243137
0.015686 0.117647 0.231373
0.133333 0.121569 0.239216
0.262745 0.121569 0.227451
0.403922 0.117647 0.239216
0.533333 0.121569 0.239216
0.662745 0.113725 0.243137
0.796078 0.117647 0.239216
0.937255 0.121569 0.250980
1.000000 0.113725 0.243137
0.015686 0.258824 0.231373
0.129412 0.258824 0.239216
0.266667 0.258824 0.231373
0.392157 0.254902 0.235294
0.521569 0.254902 0.247059
0.654902 0.254902 0.247059
0.796078 0.254902 0.243137
0.933333 0.254902 0.243137
1.000000 0.247059 0.239216
0.015686 0.400000 0.231373
0.125490 0.392157 0.227451
0.254902 0.396078 0.239216
0.388235 0.396078 0.239216
0.521569 0.396078 0.243137
0.650980 0.388235 0.247059
0.792157 0.388235 0.239216
0.929412 0.392157 0.243137
1.000000 0.388235 0.231373
0.015686 0.533333 0.231373
0.113725 0.537255 0.239216
0.243137 0.529412 0.235294
0.384314 0.525490 0.247059
0.525490 0.525490 0.239216
0.654902 0.529412 0.243137
0.784314 0.525490 0.247059
0.925490 0.525490 0.239216
1.000000 0.521569 0.235294
0.007843 0.662745 0.231373
0.105882 0.666667 0.247059
0.243137 0.662745 0.235294
0.380392 0.662745 0.243137
0.517647 0.654902 0.243137
0.650980 0.658824 0.235294
0.780392 0.650980 0.239216
0.925490 0.654902 0.239216
1.000000 0.650980 0.235294
0.000000 0.800000 0.250980
0.105882 0.800000 0.243137
0.239216 0.796078 0.243137
0.376471 0.796078 0.235294
0.505882 0.792157 0.239216
0.647059 0.792157 0.235294
0.784314 0.792157 0.235294
0.925490 0.792157 0.227451
1.000000 0.788235 0.235294
0.000000 0.933333 0.243137
0.101961 0.937255 0.243137
0.231373 0.933333 0.239216
0.376471 0.929412 0.235294
0.513725 0.929412 0.235294
0.647059 0.929412 0.235294
0.780392 0.925490 0.235294
0.913725 0.929412 0.227451
1.000000 0.921569 0.223529
0.000000 1.000000 0.239216
0.101961 1.000000 0.235294
0.231373 1.000000 0.231373
0.376471 1.000000 0.231373
0.509804 1.000000 0.235294
0.639216 1.000000 0.227451
0.776471 1.000000 0.231373
0.917647 1.000000 0.227451
1.000000 1.000000 0.223529
0.015686 0.000000 0.368627
0.129412 0.000000 0.368627
0.262745 0.000000 0.380392
0.403922 0.000000 0.372549
0.537255 0.000000 0.372549
0.666667 0.000000 0.380392
0.796078 0.000000 0.388235
0.933333 0.000000 0.388235
1.000000 0.000000 0.384314
0.015686 0.125490 0.380392
0.129412 0.125490 0.372549
0.270588 0.121569 0.372549
0.407843 0.113725 0.372549
0.533333 0.113725 0.380392
0.654902 0.121569 0.380392
0.796078 0.117647 0.392157
0.929412 0.121569 0.384314
1.000000 0.113725 0.380392
0.015686 0.258824 0.380392
0.129412 0.254902 0.372549
0.258824 0.254902 0.380392
0.392157 0.258824 0.372549
0.525490 0.254902 0.392157
0.650980 0.254902 0.380392
0.800000 0.250980 0.380392
0.933333 0.250980 0.376471
1.000000 0.250980 0.384314
0.015686 0.396078 0.372549
0.125490 0.396078 0.372549
0.254902 0.392157 0.380392
0.380392 0.392157 0.380392
0.521569 0.392157 0.380392
0.658824 0.392157 0.384314
0.792157 0.392157 0.384314
0.929412 0.388235 0.372549
1.000000 0.388235 0.376471
0.015686 0.529412 0.372549
0.113725 0.533333 0.372549
0.243137 0.525490 0.376471
0.384314 0.533333 0.384314
0.517647 0.533333 0.384314
0.654902 0.529412 0.372549
0.788235 0.525490 0.384314
0.925490 0.521569 0.372549
1.000000 0.521569 0.372549
0.007843 0.662745 0.376471
0.109804 0.662745 0.380392
0.247059 0.658824 0.376471
0.380392 0.658824 0.376471
0.509804 0.654902 0.372549
0.647059 0.658824 0.368627
0.792157 0.658824 0.380392
0.929412 0.650980 0.380392
1.000000 0.654902 0.372549
0.000000 0.796078 0.384314
0.105882 0.800000 0.376471
0.235294 0.796078 0.372549
0.376471 0.796078 0.368627
0.517647 0.800000 0.380392
0.654902 0.792157 0.380392
0.788235 0.796078 0.372549
0.917647 0.788235 0.376471
1.000000 0.788235 0.372549
0.000000 0.937255 0.372549
0.101961 0.933333 0.384314
0.235294 0.933333 0.376471
0.372549 0.925490 0.372549
0.513725 0.933333 0.372549
0.643137 0.929412 0.376471
0.784314 0.929412 0.372549
0.913725 0.925490 0.368627
1.000000 0.921569 0.356863
0.000000 1.000000 0.376471
0.098039 1.000000 0.372549
0.231373 1.000000 0.376471
0.368627 1.000000 0.376471
0.513725 1.000000 0.372549
0.639216 1.000000 0.368627
0.776471 1.000000 0.364706
0.909804 1.000000 0.364706
1.000000 1.000000 0.356863
0.015686 0.000000 0.513725
0.133333 0.000000 0.505882
0.262745 0.000000 0.509804
0.403922 0.000000 0.505882
0.541176 0.000000 0.505882
0.666667 0.000000 0.521569
0.800000 0.000000 0.525490
0.937255 0.000000 0.525490
1.000000 0.000000 0.513725
0.015686 0.121569 0.509804
0.121569 0.121569 0.513725
0.258824 0.121569 0.513725
0.392157 0.121569 0.521569
0.533333 0.121569 0.517647
0.654902 0.117647 0.521569
0.796078 0.113725 0.521569
0.933333 0.113725 0.525490
1.000000 0.117647 0.517647
0.015686 0.258824 0.513725
0.117647 0.262745 0.521569
0.247059 0.254902 0.521569
0.388235 0.254902 0.521569
0.529412 0.250980 0.521569
0.654902 0.254902 0.525490
0.792157 0.258824 0.517647
0.929412 0.250980 0.525490
1.000000 0.250980 0.517647
0.015686 0.392157 0.505882
0.117647 0.392157 0.521569
0.247059 0.388235 0.517647
0.388235 0.392157 0.525490
0.521569 0.396078 0.517647
0.654902 0.392157 0.525490
0.788235 0.392157 0.517647
0.929412 0.384314 0.513725
1.000000 0.384314 0.505882
0.015686 0.529412 0.501961
0.113725 0.529412 0.513725
0.247059 0.533333 0.525490
0.384314 0.525490 0.525490
0.517647 0.529412 0.517647
0.654902 0.521569 0.513725
0.792157 0.525490 0.517647
0.921569 0.521569 0.513725
1.000000 0.525490 0.509804
0.007843 0.670588 0.513725
0.105882 0.662745 0.517647
0.239216 0.666667 0.513725
0.380392 0.654902 0.517647
0.521569 0.662745 0.517647
0.647059 0.658824 0.513725
0.788235 0.658824 0.513725
0.917647 0.654902 0.509804
1.000000 0.654902 0.505882
0.000000 0.800000 0.521569
0.105882 0.796078 0.517647
0.243137 0.796078 0.509804
0.376471 0.788235 0.509804
0.517647 0.796078 0.513725
0.643137 0.796078 0.509804
0.784314 0.796078 0.505882
0.921569 0.784314 0.509804
1.000000 0.784314 0.509804
0.000000 0.937255 0.509804
0.101961 0.929412 0.517647
0.239216 0.929412 0.509804
0.372549 0.933333 0.509804
0.513725 0.933333 0.505882
0.643137 0.925490 0.509804
0.784314 0.925490 0.509804
0.917647 0.921569 0.501961
1.000000 0.921569 0.509804
0.000000 1.000000 0.509804
0.094118 1.000000 0.505882
0.239216 1.000000 0.521569
0.368627 1.000000 0.509804
0.509804 1.000000 0.509804
0.639216 1.000000 0.501961
0.776471 1.000000 0.509804
0.913725 1.000000 0.498039
1.000000 1.000000 0.505882
0.007843 0.000000 0.650980
0.125490 0.000000 0.654902
0.262745 0.000000 0.647059
0.392157 0.000000 0.650980
0.533333 0.000000 0.647059
0.670588 0.000000 0.647059
0.803922 0.000000 0.650980
0.937255 0.000000 0.658824
1.000000 0.000000 0.650980
0.007843 0.121569 0.654902
0.109804 0.117647 0.658824
0.250980 0.117647 0.654902
0.384314 0.121569 0.654902
0.525490 0.117647 0.658824
0.662745 0.117647 0.658824
0.796078 0.121569 0.650980
0.933333 0.113725 0.650980
1.000000 0.113725 0.658824
0.007843 0.258824 0.647059
0.109804 0.258824 0.654902
0.247059 0.254902 0.650980
0.380392 0.254902 0.654902
0.521569 0.262745 0.650980
0.658824 0.250980 0.658824
0.792157 0.254902 0.658824
0.929412 0.247059 0.647059
1.000000 0.250980 0.650980
0.007843 0.392157 0.643137
0.105882 0.396078 0.654902
0.243137 0.396078 0.647059
0.388235 0.388235 0.658824
0.525490 0.392157 0.658824
0.654902 0.388235 0.647059
0.788235 0.388235 0.658824
0.921569 0.384314 0.647059
1.000000 0.384314 0.647059
0.007843 0.529412 0.654902
0.109804 0.525490 0.650980
0.247059 0.529412 0.658824
0.384314 0.525490 0.647059
0.521569 0.525490 0.658824
0.643137 0.525490 0.647059
0.784314 0.525490 0.647059
0.921569 0.517647 0.643137
1.000000 0.521569 0.650980
0.007843 0.666667 0.654902
0.105882 0.658824 0.650980
0.239216 0.662745 0.650980
0.368627 0.658824 0.643137
0.517647 0.658824 0.654902
0.647059 0.658824 0.643137
0.788235 0.654902 0.647059
0.917647 0.650980 0.643137
1.000000 0.650980 0.647059
0.000000 0.800000 0.650980
0.094118 0.796078 0.650980
0.235294 0.796078 0.650980
0.376471 0.796078 0.643137
0.517647 0.792157 0.647059
0.643137 0.792157 0.643137
0.776471 0.792157 0.647059
0.913725 0.788235 0.635294
1.000000 0.788235 0.635294
0.000000 0.933333 0.650980
0.098039 0.929412 0.639216
0.239216 0.929412 0.643137
0.372549 0.929412 0.643137
0.513725 0.925490 0.647059
0.639216 0.929412 0.635294
0.780392 0.925490 0.643137
0.917647 0.917647 0.631373
1.000000 0.921569 0.635294
0.000000 1.000000 0.650980
0.094118 1.000000 0.639216
0.239216 1.000000 0.647059
0.368627 1.000000 0.635294
0.505882 1.000000 0.643137
0.643137 1.000000 0.631373
0.776471 1.000000 0.635294
0.913725 1.000000 0.639216
1.000000 1.000000 0.639216
0.000000 0.000000 0.803922
0.109804 0.000000 0.796078
0.254902 0.000000 0.796078
0.392157 0.000000 0.796078
0.533333 0.000000 0.800000
0.658824 0.000000 0.792157
0.796078 0.000000 0.803922
0.933333 0.000000 0.792157
1.000000 0.000000 0.792157
0.000000 0.117647 0.803922
0.113725 0.121569 0.796078
0.250980 0.113725 0.796078
0.388235 0.117647 0.788235
0.525490 0.121569 0.803922
0.654902 0.117647 0.792157
0.796078 0.117647 0.792157
0.933333 0.109804 0.780392
1.000000 0.109804 0.792157
0.000000 0.254902 0.796078
0.109804 0.254902 0.796078
0.247059 0.254902 0.796078
0.388235 0.254902 0.792157
0.521569 0.254902 0.792157
0.658824 0.250980 0.788235
0.796078 0.250980 0.792157
0.929412 0.254902 0.784314
1.000000 0.247059 0.780392
0.000000 0.396078 0.796078
0.105882 0.392157 0.788235
0.247059 0.396078 0.792157
0.384314 0.388235 0.788235
0.517647 0.392157 0.792157
0.654902 0.392157 0.784314
0.792157 0.384314 0.788235
0.925490 0.384314 0.792157
1.000000 0.384314 0.784314
0.000000 0.529412 0.796078
0.101961 0.525490 0.784314
0.243137 0.533333 0.792157
0.376471 0.533333 0.784314
0.521569 0.521569 0.788235
0.650980 0.525490 0.792157
0.788235 0.521569 0.780392
0.921569 0.521569 0.788235
1.000000 0.521569 0.784314
0.000000 0.662745 0.796078
0.105882 0.662745 0.796078
0.243137 0.658824 0.784314
0.380392 0.662745 0.792157
0.517647 0.654902 0.788235
0.650980 0.658824 0.788235
0.784314 0.654902 0.780392
0.925490 0.650980 0.788235
1.000000 0.650980 0.776471
0.000000 0.800000 0.784314
0.101961 0.796078 0.796078
0.239216 0.792157 0.784314
0.376471 0.800000 0.788235
0.505882 0.796078 0.780392
0.647059 0.792157 0.788235
0.780392 0.788235 0.776471
0.921569 0.788235 0.780392
1.000000 0.784314 0.776471
0.000000 0.933333 0.784314
0.098039 0.933333 0.784314
0.231373 0.933333 0.788235
0.372549 0.933333 0.788235
0.509804 0.925490 0.776471
0.643137 0.929412 0.780392
0.776471 0.925490 0.776471
0.909804 0.925490 0.776471
1.000000 0.925490 0.772549
0.000000 1.000000 0.780392
0.098039 1.000000 0.784314
0.235294 1.000000 0.776471
0.376471 1.000000 0.780392
0.505882 1.000000 0.776471
0.635294 1.000000 0.776471
0.772549 1.000000 0.764706
0.913725 1.000000 0.776471
1.000000 1.000000 0.768627
0.000000 0.000000 0.937255
0.113725 0.000000 0.941176
0.243137 0.000000 0.929412
0.384314 0.000000 0.937255
0.525490 0.000000 0.937255
0.662745 0.000000 0.933333
0.796078 0.000000 0.933333
0.933333 0.000000 0.937255
1.000000 0.000000 0.925490
0.000000 0.121569 0.937255
0.109804 0.121569 0.937255
0.243137 0.121569 0.933333
0.392157 0.117647 0.933333
0.525490 0.117647 0.933333
0.654902 0.121569 0.937255
0.792157 0.117647 0.925490
0.929412 0.117647 0.933333
1.000000 0.109804 0.925490
0.000000 0.258824 0.933333
0.113725 0.250980 0.937255
0.250980 0.258824 0.933333
0.392157 0.254902 0.937255
0.525490 0.254902 0.925490
0.650980 0.254902 0.933333
0.788235 0.250980 0.925490
0.929412 0.247059 0.925490
1.000000 0.247059 0.917647
0.000000 0.392157 0.929412
0.109804 0.388235 0.925490
0.247059 0.392157 0.933333
0.384314 0.392157 0.933333
0.521569 0.388235 0.925490
0.654902 0.388235 0.925490
0.792157 0.380392 0.921569
0.925490 0.384314 0.925490
1.000000 0.384314 0.917647
0.000000 0.529412 0.929412
0.105882 0.533333 0.933333
0.243137 0.529412 0.925490
0.380392 0.529412 0.925490
0.517647 0.521569 0.921569
0.650980 0.525490 0.925490
0.780392 0.521569 0.913725
0.925490 0.521569 0.925490
1.000000 0.517647 0.925490
0.000000 0.658824 0.925490
0.105882 0.658824 0.929412
0.243137 0.654902 0.917647
0.380392 0.658824 0.925490
0.513725 0.654902 0.929412
0.647059 0.658824 0.921569
0.784314 0.650980 0.917647
0.925490 0.647059 0.921569
1.000000 0.647059 0.917647
0.000000 0.796078 0.917647
0.101961 0.796078 0.925490
0.235294 0.796078 0.929412
0.376471 0.796078 0.921569
0.509804 0.792157 0.917647
0.650980 0.788235 0.921569
0.780392 0.784314 0.917647
0.913725 0.788235 0.909804
1.000000 0.784314 0.921569
0.000000 0.933333 0.925490
0.098039 0.929412 0.917647
0.231373 0.929412 0.925490
0.376471 0.929412 0.921569
0.505882 0.925490 0.917647
0.639216 0.925490 0.917647
0.776471 0.921569 0.917647
0.917647 0.925490 0.913725
1.000000 0.921569 0.909804
0.000000 1.000000 0.921569
0.098039 1.000000 0.921569
0.231373 1.000000 0.917647
0.364706 1.000000 0.917647
0.501961 1.000000 0.917647
0.635294 1.000000 0.909804
0.772549 1.000000 0.905882
0.913725 1.000000 0.913725
1.000000 1.000000 0.909804
0.000000 0.000000 1.000000
0.113725 0.000000 1.000000
0.250980 0.000000 1.000000
0.392157 0.000000 1.000000
0.525490 0.000000 1.000000
0.662745 0.000000 1.000000
0.796078 0.000000 1.000000
0.933333 0.000000 1.000000
1.000000 0.000000 1.000000
0.000000 0.121569 1.000000
0.109804 0.117647 1.000000
0.250980 0.121569 1.000000
0.384314 0.125490 1.000000
0.521569 0.117647 1.000000
0.658824 0.117647 1.000000
0.792157 0.113725 1.000000
0.929412 0.113725 1.000000
1.000000 0.117647 1.000000
0.000000 0.258824 1.000000
0.101961 0.254902 1.000000
0.247059 0.254902 1.000000
0.380392 0.258824 1.000000
0.525490 0.250980 1.000000
0.654902 0.254902 1.000000
0.784314 0.250980 1.000000
0.925490 0.250980 1.000000
1.000000 0.254902 1.000000
0.000000 0.388235 1.000000
0.113725 0.396078 1.000000
0.250980 0.388235 1.000000
0.384314 0.392157 1.000000
0.521569 0.384314 1.000000
0.650980 0.388235 1.000000
0.780392 0.384314 1.000000
0.925490 0.388235 1.000000
1.000000 0.384314 1.000000
0.000000 0.525490 1.000000
0.109804 0.529412 1.000000
0.247059 0.525490 1.000000
0.380392 0.525490 1.000000
0.509804 0.521569 1.000000
0.650980 0.521569 1.000000
0.792157 0.525490 1.000000
0.929412 0.517647 1.000000
1.000000 0.521569 1.000000
0.000000 0.658824 1.000000
0.101961 0.658824 1.000000
0.235294 0.662745 1.000000
0.384314 0.654902 1.000000
0.517647 0.658824 1.000000
0.647059 0.654902 1.000000
0.784314 0.654902 1.000000
0.913725 0.650980 1.000000
1.000000 0.654902 1.000000
0.000000 0.792157 1.000000
0.101961 0.792157 1.000000
0.243137 0.796078 1.000000
0.380392 0.792157 1.000000
0.513725 0.792157 1.000000
0.639216 0.792157 1.000000
0.776471 0.784314 1.000000
0.921569 0.788235 1.000000
1.000000 0.780392 1.000000
0.000000 0.929412 1.000000
0.105882 0.933333 1.000000
0.239216 0.933333 1.000000
0.368627 0.929412 1.000000
0.505882 0.921569 1.000000
0.639216 0.921569 1.000000
0.776471 0.917647 1.000000
0.917647 0.921569 1.000000
1.000000 0.921569 1.000000
0.000000 1.000000 1.000000
0.094118 1.000000 1.000000
0.231373 1.000000 1.000000
0.364706 1.000000 1.000000
0.501961 1.000000 1.000000
0.639216 1.000000 1.000000
0.772549 1.000000 1.000000
0.913725 1.000000 1.000000
1.000000 1.000000 1.000000
