00_COMMAND_CENTER/ALMA_MARGIELA_SAVE_001/06_FULL_CUT/ALMA_LOVE_signature_look_v1.cube
# ALMA LOVE - Signature Look v1 (Deadpan Summer / warm California)
# Video 3D LUT - drop into Premiere(Lumetri), After Effects, Resolve, CapCut, FCPX
# Built from the locked Alma Love campaign grade. Apply at ~85-100% intensity.
LUT_3D_SIZE 5
DOMAIN_MIN 0.0 0.0 0.0
DOMAIN_MAX 1.0 1.0 1.0
0.015686 0.000000 0.000000
0.262745 0.000000 0.000000
0.545098 0.000000 0.000000
0.800000 0.000000 0.000000
1.000000 0.000000 0.000000
0.015686 0.262745 0.000000
0.270588 0.258824 0.000000
0.541176 0.250980 0.000000
0.792157 0.254902 0.000000
1.000000 0.254902 0.000000
0.015686 0.529412 0.000000
0.262745 0.533333 0.000000
0.533333 0.529412 0.000000
0.792157 0.529412 0.000000
1.000000 0.521569 0.000000
0.000000 0.800000 0.000000
0.243137 0.800000 0.000000
0.517647 0.796078 0.000000
0.788235 0.788235 0.000000
1.000000 0.792157 0.000000
0.000000 1.000000 0.000000
0.235294 1.000000 0.000000
0.501961 1.000000 0.000000
0.780392 1.000000 0.000000
1.000000 1.000000 0.000000
0.015686 0.000000 0.227451
0.274510 0.000000 0.235294
0.541176 0.000000 0.227451
0.792157 0.000000 0.247059
1.000000 0.000000 0.243137
0.015686 0.258824 0.231373
0.266667 0.258824 0.231373
0.521569 0.254902 0.247059
0.796078 0.254902 0.243137
1.000000 0.247059 0.239216
0.015686 0.533333 0.231373
0.243137 0.529412 0.235294
0.525490 0.525490 0.239216
0.784314 0.525490 0.247059
1.000000 0.521569 0.235294
0.000000 0.800000 0.250980
0.239216 0.796078 0.243137
0.505882 0.792157 0.239216
0.784314 0.792157 0.235294
1.000000 0.788235 0.235294
0.000000 1.000000 0.239216
0.231373 1.000000 0.231373
0.509804 1.000000 0.235294
0.776471 1.000000 0.231373
1.000000 1.000000 0.223529
0.015686 0.000000 0.513725
0.262745 0.000000 0.509804
0.541176 0.000000 0.505882
0.800000 0.000000 0.525490
1.000000 0.000000 0.513725
0.015686 0.258824 0.513725
0.247059 0.254902 0.521569
0.529412 0.250980 0.521569
0.792157 0.258824 0.517647
1.000000 0.250980 0.517647
0.015686 0.529412 0.501961
0.247059 0.533333 0.525490
0.517647 0.529412 0.517647
0.792157 0.525490 0.517647
1.000000 0.525490 0.509804
0.000000 0.800000 0.521569
0.243137 0.796078 0.509804
0.517647 0.796078 0.513725
0.784314 0.796078 0.505882
1.000000 0.784314 0.509804
0.000000 1.000000 0.509804
0.239216 1.000000 0.521569
0.509804 1.000000 0.509804
0.776471 1.000000 0.509804
1.000000 1.000000 0.505882
0.000000 0.000000 0.803922
0.254902 0.000000 0.796078
0.533333 0.000000 0.800000
0.796078 0.000000 0.803922
1.000000 0.000000 0.792157
0.000000 0.254902 0.796078
0.247059 0.254902 0.796078
0.521569 0.254902 0.792157
0.796078 0.250980 0.792157
1.000000 0.247059 0.780392
0.000000 0.529412 0.796078
0.243137 0.533333 0.792157
0.521569 0.521569 0.788235
0.788235 0.521569 0.780392
1.000000 0.521569 0.784314
0.000000 0.800000 0.784314
0.239216 0.792157 0.784314
0.505882 0.796078 0.780392
0.780392 0.788235 0.776471
1.000000 0.784314 0.776471
0.000000 1.000000 0.780392
0.235294 1.000000 0.776471
0.505882 1.000000 0.776471
0.772549 1.000000 0.764706
1.000000 1.000000 0.768627
0.000000 0.000000 1.000000
0.250980 0.000000 1.000000
0.525490 0.000000 1.000000
0.796078 0.000000 1.000000
1.000000 0.000000 1.000000
0.000000 0.258824 1.000000
0.247059 0.254902 1.000000
0.525490 0.250980 1.000000
0.784314 0.250980 1.000000
1.000000 0.254902 1.000000
0.000000 0.525490 1.000000
0.247059 0.525490 1.000000
0.509804 0.521569 1.000000
0.792157 0.525490 1.000000
1.000000 0.521569 1.000000
0.000000 0.792157 1.000000
0.243137 0.796078 1.000000
0.513725 0.792157 1.000000
0.776471 0.784314 1.000000
1.000000 0.780392 1.000000
0.000000 1.000000 1.000000
0.231373 1.000000 1.000000
0.501961 1.000000 1.000000
0.772549 1.000000 1.000000
1.000000 1.000000 1.000000
