00_COMMAND_CENTER/ALMA_MARGIELA_SAVE_001/06_FULL_CUT/ALMA_LOVE_signature_look_v1.cube
# ALMA LOVE - Signature Look v1 (Deadpan Summer / warm California)
# Video 3D LUT - drop into Premiere(Lumetri), After Effects, Resolve, CapCut, FCPX
# Built from the locked Alma Love campaign grade. Apply at ~85-100% intensity.
LUT_3D_SIZE 33
DOMAIN_MIN 0.0 0.0 0.0
DOMAIN_MAX 1.0 1.0 1.0
0.015686 0.000000 0.000000
0.031373 0.000000 0.000000
0.058824 0.000000 0.000000
0.094118 0.000000 0.000000
0.129412 0.000000 0.000000
0.164706 0.000000 0.000000
0.196078 0.000000 0.000000
0.235294 0.000000 0.000000
0.262745 0.000000 0.000000
0.298039 0.000000 0.000000
0.341176 0.000000 0.000000
0.372549 0.000000 0.000000
0.403922 0.000000 0.000000
0.443137 0.000000 0.000000
0.470588 0.000000 0.000000
0.517647 0.000000 0.000000
0.545098 0.000000 0.000000
0.568627 0.000000 0.000000
0.607843 0.000000 0.000000
0.631373 0.000000 0.000000
0.670588 0.000000 0.000000
0.701961 0.000000 0.000000
0.733333 0.000000 0.000000
0.760784 0.000000 0.000000
0.800000 0.000000 0.000000
0.827451 0.000000 0.000000
0.866667 0.000000 0.000000
0.901961 0.000000 0.000000
0.933333 0.000000 0.000000
0.960784 0.000000 0.000000
1.000000 0.000000 0.000000
1.000000 0.000000 0.000000
1.000000 0.000000 0.000000
0.015686 0.015686 0.000000
0.023529 0.015686 0.000000
0.058824 0.015686 0.000000
0.098039 0.015686 0.000000
0.125490 0.019608 0.000000
0.164706 0.015686 0.000000
0.192157 0.015686 0.000000
0.227451 0.015686 0.000000
0.266667 0.015686 0.000000
0.305882 0.019608 0.000000
0.333333 0.019608 0.000000
0.372549 0.015686 0.000000
0.400000 0.019608 0.000000
0.447059 0.019608 0.000000
0.474510 0.019608 0.000000
0.509804 0.019608 0.000000
0.541176 0.015686 0.000000
0.568627 0.015686 0.000000
0.603922 0.019608 0.000000
0.635294 0.019608 0.000000
0.670588 0.015686 0.000000
0.694118 0.019608 0.000000
0.733333 0.015686 0.000000
0.760784 0.015686 0.000000
0.796078 0.019608 0.000000
0.831373 0.019608 0.000000
0.866667 0.015686 0.000000
0.894118 0.015686 0.000000
0.933333 0.011765 0.000000
0.968627 0.011765 0.000000
0.996078 0.011765 0.000000
1.000000 0.011765 0.000000
1.000000 0.019608 0.000000
0.015686 0.050980 0.000000
0.027451 0.050980 0.000000
0.054902 0.054902 0.000000
0.098039 0.050980 0.000000
0.125490 0.050980 0.000000
0.160784 0.050980 0.000000
0.196078 0.050980 0.000000
0.231373 0.050980 0.000000
0.262745 0.054902 0.000000
0.305882 0.050980 0.000000
0.333333 0.054902 0.000000
0.376471 0.054902 0.000000
0.407843 0.054902 0.000000
0.439216 0.054902 0.000000
0.474510 0.050980 0.000000
0.509804 0.050980 0.000000
0.541176 0.054902 0.000000
0.572549 0.054902 0.000000
0.603922 0.050980 0.000000
0.627451 0.054902 0.000000
0.670588 0.050980 0.000000
0.694118 0.050980 0.000000
0.733333 0.054902 0.000000
0.760784 0.050980 0.000000
0.796078 0.050980 0.000000
0.831373 0.047059 0.000000
0.866667 0.047059 0.000000
0.898039 0.047059 0.000000
0.925490 0.047059 0.000000
0.972549 0.047059 0.000000
1.000000 0.047059 0.000000
1.000000 0.043137 0.000000
1.000000 0.050980 0.000000
0.015686 0.090196 0.000000
0.027451 0.086275 0.000000
0.054902 0.086275 0.000000
0.090196 0.086275 0.000000
0.129412 0.086275 0.000000
0.164706 0.086275 0.000000
0.192157 0.086275 0.000000
0.231373 0.082353 0.000000
0.262745 0.086275 0.000000
0.309804 0.090196 0.000000
0.337255 0.090196 0.000000
0.372549 0.090196 0.000000
0.403922 0.086275 0.000000
0.439216 0.086275 0.000000
0.470588 0.090196 0.000000
0.513725 0.086275 0.000000
0.541176 0.086275 0.000000
0.564706 0.090196 0.000000
0.603922 0.086275 0.000000
0.627451 0.086275 0.000000
0.666667 0.090196 0.000000
0.705882 0.086275 0.000000
0.733333 0.086275 0.000000
0.760784 0.082353 0.000000
0.796078 0.082353 0.000000
0.831373 0.082353 0.000000
0.858824 0.082353 0.000000
0.901961 0.082353 0.000000
0.929412 0.082353 0.000000
0.972549 0.078431 0.000000
1.000000 0.078431 0.000000
1.000000 0.082353 0.000000
1.000000 0.082353 0.000000
0.015686 0.121569 0.000000
0.023529 0.117647 0.000000
0.058824 0.121569 0.000000
0.094118 0.121569 0.000000
0.121569 0.121569 0.000000
0.164706 0.117647 0.000000
0.192157 0.117647 0.000000
0.239216 0.125490 0.000000
0.266667 0.125490 0.000000
0.301961 0.125490 0.000000
0.337255 0.121569 0.000000
0.372549 0.117647 0.000000
0.403922 0.125490 0.000000
0.443137 0.121569 0.000000
0.470588 0.121569 0.000000
0.505882 0.121569 0.000000
0.541176 0.121569 0.000000
0.568627 0.117647 0.000000
0.603922 0.125490 0.000000
0.639216 0.121569 0.000000
0.666667 0.121569 0.000000
0.698039 0.117647 0.000000
0.733333 0.117647 0.000000
0.760784 0.113725 0.000000
0.788235 0.117647 0.000000
0.835294 0.117647 0.000000
0.862745 0.117647 0.000000
0.901961 0.113725 0.000000
0.929412 0.113725 0.000000
0.964706 0.113725 0.000000
1.000000 0.117647 0.000000
1.000000 0.117647 0.000000
1.000000 0.121569 0.000000
0.015686 0.156863 0.000000
0.027451 0.156863 0.000000
0.054902 0.156863 0.000000
0.094118 0.152941 0.000000
0.121569 0.152941 0.000000
0.168627 0.156863 0.000000
0.196078 0.156863 0.000000
0.235294 0.156863 0.000000
0.266667 0.156863 0.000000
0.301961 0.152941 0.000000
0.333333 0.160784 0.000000
0.376471 0.156863 0.000000
0.403922 0.156863 0.000000
0.435294 0.156863 0.000000
0.470588 0.156863 0.000000
0.505882 0.152941 0.000000
0.545098 0.156863 0.000000
0.572549 0.152941 0.000000
0.603922 0.156863 0.000000
0.631373 0.152941 0.000000
0.666667 0.152941 0.000000
0.698039 0.149020 0.000000
0.725490 0.152941 0.000000
0.764706 0.152941 0.000000
0.792157 0.152941 0.000000
0.835294 0.149020 0.000000
0.862745 0.149020 0.000000
0.898039 0.149020 0.000000
0.929412 0.149020 0.000000
0.968627 0.149020 0.000000
1.000000 0.156863 0.000000
1.000000 0.152941 0.000000
1.000000 0.152941 0.000000
0.015686 0.192157 0.000000
0.023529 0.188235 0.000000
0.054902 0.188235 0.000000
0.098039 0.188235 0.000000
0.125490 0.192157 0.000000
0.160784 0.188235 0.000000
0.200000 0.192157 0.000000
0.231373 0.188235 0.000000
0.266667 0.196078 0.000000
0.305882 0.192157 0.000000
0.333333 0.192157 0.000000
0.368627 0.192157 0.000000
0.407843 0.188235 0.000000
0.435294 0.188235 0.000000
0.474510 0.192157 0.000000
0.509804 0.188235 0.000000
0.545098 0.188235 0.000000
0.568627 0.188235 0.000000
0.600000 0.188235 0.000000
0.631373 0.184314 0.000000
0.658824 0.188235 0.000000
0.701961 0.188235 0.000000
0.729412 0.188235 0.000000
0.764706 0.184314 0.000000
0.792157 0.184314 0.000000
0.827451 0.184314 0.000000
0.862745 0.184314 0.000000
0.901961 0.184314 0.000000
0.929412 0.184314 0.000000
0.972549 0.188235 0.000000
1.000000 0.188235 0.000000
1.000000 0.188235 0.000000
1.000000 0.184314 0.000000
0.015686 0.223529 0.000000
0.027451 0.223529 0.000000
0.058824 0.227451 0.000000
0.090196 0.223529 0.000000
0.125490 0.223529 0.000000
0.164706 0.223529 0.000000
0.196078 0.231373 0.000000
0.235294 0.227451 0.000000
0.270588 0.223529 0.000000
0.298039 0.227451 0.000000
0.341176 0.223529 0.000000
0.368627 0.223529 0.000000
0.407843 0.227451 0.000000
0.439216 0.223529 0.000000
0.474510 0.223529 0.000000
0.501961 0.223529 0.000000
0.541176 0.219608 0.000000
0.568627 0.219608 0.000000
0.596078 0.223529 0.000000
0.635294 0.223529 0.000000
0.662745 0.223529 0.000000
0.701961 0.219608 0.000000
0.729412 0.219608 0.000000
0.760784 0.219608 0.000000
0.792157 0.215686 0.000000
0.831373 0.219608 0.000000
0.858824 0.219608 0.000000
0.898039 0.215686 0.000000
0.929412 0.219608 0.000000
0.964706 0.223529 0.000000
1.000000 0.219608 0.000000
1.000000 0.219608 0.000000
1.000000 0.223529 0.000000
0.015686 0.262745 0.000000
0.023529 0.258824 0.000000
0.054902 0.258824 0.000000
0.090196 0.254902 0.000000
0.125490 0.254902 0.000000
0.168627 0.262745 0.000000
0.203922 0.258824 0.000000
0.231373 0.258824 0.000000
0.270588 0.258824 0.000000
0.298039 0.258824 0.000000
0.337255 0.258824 0.000000
0.372549 0.258824 0.000000
0.403922 0.258824 0.000000
0.435294 0.258824 0.000000
0.474510 0.254902 0.000000
0.501961 0.254902 0.000000
0.541176 0.250980 0.000000
0.572549 0.258824 0.000000
0.600000 0.258824 0.000000
0.635294 0.254902 0.000000
0.662745 0.254902 0.000000
0.694118 0.254902 0.000000
0.729412 0.250980 0.000000
0.760784 0.254902 0.000000
0.792157 0.254902 0.000000
0.831373 0.250980 0.000000
0.858824 0.254902 0.000000
0.894118 0.254902 0.000000
0.933333 0.254902 0.000000
0.964706 0.254902 0.000000
1.000000 0.258824 0.000000
1.000000 0.254902 0.000000
1.000000 0.254902 0.000000
0.015686 0.290196 0.000000
0.023529 0.290196 0.000000
0.054902 0.286275 0.000000
0.094118 0.290196 0.000000
0.133333 0.294118 0.000000
0.160784 0.294118 0.000000
0.200000 0.290196 0.000000
0.231373 0.294118 0.000000
0.266667 0.294118 0.000000
0.301961 0.294118 0.000000
0.337255 0.294118 0.000000
0.364706 0.294118 0.000000
0.403922 0.290196 0.000000
0.431373 0.290196 0.000000
0.474510 0.286275 0.000000
0.505882 0.294118 0.000000
0.541176 0.290196 0.000000
0.568627 0.290196 0.000000
0.600000 0.290196 0.000000
0.627451 0.290196 0.000000
0.662745 0.286275 0.000000
0.698039 0.290196 0.000000
0.725490 0.290196 0.000000
0.760784 0.286275 0.000000
0.788235 0.290196 0.000000
0.823529 0.286275 0.000000
0.858824 0.286275 0.000000
0.898039 0.290196 0.000000
0.929412 0.294118 0.000000
0.968627 0.290196 0.000000
0.996078 0.290196 0.000000
1.000000 0.290196 0.000000
1.000000 0.286275 0.000000
0.015686 0.321569 0.000000
0.027451 0.325490 0.000000
0.058824 0.325490 0.000000
0.094118 0.329412 0.000000
0.133333 0.325490 0.000000
0.160784 0.329412 0.000000
0.200000 0.329412 0.000000
0.235294 0.329412 0.000000
0.266667 0.329412 0.000000
0.294118 0.329412 0.000000
0.337255 0.325490 0.000000
0.364706 0.325490 0.000000
0.403922 0.321569 0.000000
0.435294 0.329412 0.000000
0.470588 0.325490 0.000000
0.505882 0.325490 0.000000
0.541176 0.321569 0.000000
0.564706 0.321569 0.000000
0.596078 0.321569 0.000000
0.631373 0.325490 0.000000
0.658824 0.325490 0.000000
0.698039 0.321569 0.000000
0.725490 0.325490 0.000000
0.760784 0.321569 0.000000
0.788235 0.321569 0.000000
0.823529 0.317647 0.000000
0.854902 0.325490 0.000000
0.901961 0.325490 0.000000
0.933333 0.321569 0.000000
0.964706 0.325490 0.000000
1.000000 0.321569 0.000000
1.000000 0.321569 0.000000
1.000000 0.317647 0.000000
0.015686 0.360784 0.000000
0.019608 0.360784 0.000000
0.058824 0.356863 0.000000
0.090196 0.364706 0.000000
0.129412 0.364706 0.000000
0.164706 0.364706 0.000000
0.200000 0.364706 0.000000
0.227451 0.364706 0.000000
0.266667 0.360784 0.000000
0.294118 0.360784 0.000000
0.337255 0.352941 0.000000
0.368627 0.364706 0.000000
0.403922 0.360784 0.000000
0.435294 0.360784 0.000000
0.470588 0.356863 0.000000
0.498039 0.356863 0.000000
0.537255 0.352941 0.000000
0.568627 0.360784 0.000000
0.596078 0.360784 0.000000
0.631373 0.356863 0.000000
0.658824 0.356863 0.000000
0.694118 0.356863 0.000000
0.725490 0.356863 0.000000
0.756863 0.352941 0.000000
0.792157 0.356863 0.000000
0.827451 0.352941 0.000000
0.866667 0.356863 0.000000
0.894118 0.360784 0.000000
0.933333 0.356863 0.000000
0.960784 0.356863 0.000000
1.000000 0.352941 0.000000
1.000000 0.356863 0.000000
1.000000 0.356863 0.000000
0.015686 0.392157 0.000000
0.019608 0.392157 0.000000
0.062745 0.400000 0.000000
0.098039 0.400000 0.000000
0.129412 0.400000 0.000000
0.156863 0.400000 0.000000
0.200000 0.392157 0.000000
0.227451 0.396078 0.000000
0.266667 0.388235 0.000000
0.298039 0.400000 0.000000
0.333333 0.396078 0.000000
0.368627 0.396078 0.000000
0.403922 0.392157 0.000000
0.431373 0.392157 0.000000
0.470588 0.388235 0.000000
0.501961 0.396078 0.000000
0.537255 0.392157 0.000000
0.568627 0.392157 0.000000
0.596078 0.392157 0.000000
0.627451 0.392157 0.000000
0.666667 0.388235 0.000000
0.694118 0.388235 0.000000
0.729412 0.392157 0.000000
0.760784 0.388235 0.000000
0.792157 0.388235 0.000000
0.823529 0.392157 0.000000
0.866667 0.392157 0.000000
0.894118 0.392157 0.000000
0.933333 0.388235 0.000000
0.964706 0.392157 0.000000
1.000000 0.392157 0.000000
1.000000 0.388235 0.000000
1.000000 0.388235 0.000000
0.015686 0.427451 0.000000
0.023529 0.427451 0.000000
0.062745 0.431373 0.000000
0.090196 0.435294 0.000000
0.129412 0.427451 0.000000
0.156863 0.431373 0.000000
0.200000 0.423529 0.000000
0.231373 0.435294 0.000000
0.266667 0.431373 0.000000
0.298039 0.431373 0.000000
0.333333 0.427451 0.000000
0.360784 0.427451 0.000000
0.400000 0.423529 0.000000
0.435294 0.431373 0.000000
0.466667 0.427451 0.000000
0.501961 0.427451 0.000000
0.537255 0.427451 0.000000
0.560784 0.427451 0.000000
0.600000 0.423529 0.000000
0.627451 0.423529 0.000000
0.662745 0.427451 0.000000
0.694118 0.423529 0.000000
0.729412 0.423529 0.000000
0.756863 0.423529 0.000000
0.792157 0.419608 0.000000
0.823529 0.427451 0.000000
0.866667 0.423529 0.000000
0.898039 0.427451 0.000000
0.933333 0.423529 0.000000
0.964706 0.423529 0.000000
1.000000 0.423529 0.000000
1.000000 0.423529 0.000000
1.000000 0.419608 0.000000
0.015686 0.462745 0.000000
0.019608 0.470588 0.000000
0.062745 0.462745 0.000000
0.090196 0.466667 0.000000
0.129412 0.458824 0.000000
0.160784 0.466667 0.000000
0.196078 0.466667 0.000000
0.231373 0.462745 0.000000
0.262745 0.462745 0.000000
0.294118 0.462745 0.000000
0.333333 0.458824 0.000000
0.364706 0.466667 0.000000
0.400000 0.462745 0.000000
0.435294 0.462745 0.000000
0.466667 0.462745 0.000000
0.494118 0.462745 0.000000
0.537255 0.458824 0.000000
0.560784 0.458824 0.000000
0.600000 0.462745 0.000000
0.627451 0.458824 0.000000
0.662745 0.458824 0.000000
0.690196 0.458824 0.000000
0.729412 0.454902 0.000000
0.756863 0.458824 0.000000
0.796078 0.458824 0.000000
0.827451 0.462745 0.000000
0.862745 0.458824 0.000000
0.898039 0.458824 0.000000
0.933333 0.458824 0.000000
0.960784 0.458824 0.000000
1.000000 0.454902 0.000000
1.000000 0.454902 0.000000
1.000000 0.454902 0.000000
0.015686 0.498039 0.000000
0.019608 0.501961 0.000000
0.058824 0.494118 0.000000
0.094118 0.501961 0.000000
0.125490 0.501961 0.000000
0.160784 0.498039 0.000000
0.196078 0.498039 0.000000
0.223529 0.498039 0.000000
0.262745 0.494118 0.000000
0.298039 0.501961 0.000000
0.329412 0.498039 0.000000
0.364706 0.498039 0.000000
0.400000 0.494118 0.000000
0.431373 0.494118 0.000000
0.466667 0.494118 0.000000
0.501961 0.490196 0.000000
0.533333 0.498039 0.000000
0.564706 0.494118 0.000000
0.600000 0.494118 0.000000
0.627451 0.494118 0.000000
0.662745 0.490196 0.000000
0.690196 0.494118 0.000000
0.725490 0.486275 0.000000
0.760784 0.494118 0.000000
0.796078 0.494118 0.000000
0.827451 0.494118 0.000000
0.862745 0.494118 0.000000
0.890196 0.494118 0.000000
0.929412 0.490196 0.000000
0.960784 0.490196 0.000000
0.992157 0.490196 0.000000
1.000000 0.494118 0.000000
1.000000 0.490196 0.000000
0.015686 0.529412 0.000000
0.023529 0.537255 0.000000
0.058824 0.537255 0.000000
0.094118 0.533333 0.000000
0.125490 0.533333 0.000000
0.152941 0.533333 0.000000
0.196078 0.529412 0.000000
0.227451 0.537255 0.000000
0.262745 0.533333 0.000000
0.301961 0.529412 0.000000
0.329412 0.529412 0.000000
0.364706 0.529412 0.000000
0.400000 0.525490 0.000000
0.431373 0.525490 0.000000
0.466667 0.533333 0.000000
0.505882 0.525490 0.000000
0.533333 0.529412 0.000000
0.560784 0.529412 0.000000
0.596078 0.525490 0.000000
0.627451 0.529412 0.000000
0.662745 0.521569 0.000000
0.694118 0.529412 0.000000
0.725490 0.525490 0.000000
0.760784 0.529412 0.000000
0.792157 0.529412 0.000000
0.823529 0.529412 0.000000
0.862745 0.525490 0.000000
0.890196 0.525490 0.000000
0.925490 0.525490 0.000000
0.964706 0.529412 0.000000
0.996078 0.525490 0.000000
1.000000 0.525490 0.000000
1.000000 0.521569 0.000000
0.011765 0.564706 0.000000
0.019608 0.560784 0.000000
0.050980 0.564706 0.000000
0.082353 0.560784 0.000000
0.117647 0.560784 0.000000
0.152941 0.556863 0.000000
0.184314 0.560784 0.000000
0.223529 0.560784 0.000000
0.250980 0.560784 0.000000
0.290196 0.564706 0.000000
0.325490 0.560784 0.000000
0.360784 0.560784 0.000000
0.392157 0.564706 0.000000
0.431373 0.560784 0.000000
0.466667 0.560784 0.000000
0.501961 0.556863 0.000000
0.533333 0.556863 0.000000
0.564706 0.556863 0.000000
0.596078 0.556863 0.000000
0.631373 0.560784 0.000000
0.658824 0.560784 0.000000
0.698039 0.556863 0.000000
0.725490 0.556863 0.000000
0.756863 0.552941 0.000000
0.788235 0.556863 0.000000
0.823529 0.552941 0.000000
0.850980 0.556863 0.000000
0.894118 0.552941 0.000000
0.925490 0.556863 0.000000
0.956863 0.552941 0.000000
0.992157 0.552941 0.000000
1.000000 0.549020 0.000000
1.000000 0.556863 0.000000
0.011765 0.600000 0.000000
0.015686 0.596078 0.000000
0.047059 0.592157 0.000000
0.082353 0.592157 0.000000
0.113725 0.596078 0.000000
0.156863 0.596078 0.000000
0.184314 0.596078 0.000000
0.219608 0.596078 0.000000
0.254902 0.596078 0.000000
0.290196 0.596078 0.000000
0.337255 0.596078 0.000000
0.364706 0.596078 0.000000
0.396078 0.596078 0.000000
0.431373 0.592157 0.000000
0.466667 0.592157 0.000000
0.494118 0.592157 0.000000
0.533333 0.588235 0.000000
0.568627 0.596078 0.000000
0.596078 0.596078 0.000000
0.631373 0.592157 0.000000
0.658824 0.592157 0.000000
0.694118 0.588235 0.000000
0.725490 0.592157 0.000000
0.756863 0.588235 0.000000
0.780392 0.588235 0.000000
0.827451 0.588235 0.000000
0.854902 0.592157 0.000000
0.890196 0.588235 0.000000
0.921569 0.588235 0.000000
0.956863 0.584314 0.000000
0.984314 0.588235 0.000000
1.000000 0.588235 0.000000
1.000000 0.592157 0.000000
0.007843 0.627451 0.000000
0.011765 0.627451 0.000000
0.043137 0.631373 0.000000
0.082353 0.627451 0.000000
0.109804 0.631373 0.000000
0.145098 0.631373 0.000000
0.184314 0.623529 0.000000
0.219608 0.631373 0.000000
0.262745 0.627451 0.000000
0.290196 0.631373 0.000000
0.325490 0.631373 0.000000
0.360784 0.627451 0.000000
0.392157 0.627451 0.000000
0.419608 0.627451 0.000000
0.462745 0.623529 0.000000
0.494118 0.631373 0.000000
0.529412 0.627451 0.000000
0.560784 0.627451 0.000000
0.592157 0.627451 0.000000
0.623529 0.623529 0.000000
0.658824 0.627451 0.000000
0.694118 0.623529 0.000000
0.717647 0.623529 0.000000
0.760784 0.623529 0.000000
0.784314 0.623529 0.000000
0.819608 0.623529 0.000000
0.854902 0.623529 0.000000
0.890196 0.619608 0.000000
0.917647 0.623529 0.000000
0.956863 0.619608 0.000000
0.984314 0.619608 0.000000
1.000000 0.623529 0.000000
1.000000 0.627451 0.000000
0.007843 0.666667 0.000000
0.015686 0.662745 0.000000
0.047059 0.662745 0.000000
0.074510 0.662745 0.000000
0.117647 0.658824 0.000000
0.145098 0.658824 0.000000
0.184314 0.654902 0.000000
0.223529 0.666667 0.000000
0.254902 0.666667 0.000000
0.290196 0.662745 0.000000
0.325490 0.662745 0.000000
0.352941 0.662745 0.000000
0.392157 0.658824 0.000000
0.423529 0.666667 0.000000
0.458824 0.662745 0.000000
0.494118 0.662745 0.000000
0.529412 0.658824 0.000000
0.556863 0.658824 0.000000
0.588235 0.658824 0.000000
0.623529 0.658824 0.000000
0.650980 0.658824 0.000000
0.694118 0.658824 0.000000
0.721569 0.658824 0.000000
0.756863 0.658824 0.000000
0.784314 0.658824 0.000000
0.819608 0.654902 0.000000
0.847059 0.658824 0.000000
0.886275 0.654902 0.000000
0.917647 0.654902 0.000000
0.960784 0.654902 0.000000
0.992157 0.658824 0.000000
1.000000 0.658824 0.000000
1.000000 0.654902 0.000000
0.003922 0.698039 0.000000
0.003922 0.698039 0.000000
0.043137 0.694118 0.000000
0.070588 0.694118 0.000000
0.113725 0.690196 0.000000
0.145098 0.694118 0.000000
0.184314 0.698039 0.000000
0.215686 0.698039 0.000000
0.250980 0.698039 0.000000
0.278431 0.698039 0.000000
0.321569 0.694118 0.000000
0.352941 0.701961 0.000000
0.388235 0.698039 0.000000
0.419608 0.698039 0.000000
0.454902 0.694118 0.000000
0.482353 0.694118 0.000000
0.521569 0.694118 0.000000
0.552941 0.694118 0.000000
0.580392 0.694118 0.000000
0.623529 0.694118 0.000000
0.650980 0.694118 0.000000
0.686275 0.694118 0.000000
0.721569 0.694118 0.000000
0.752941 0.690196 0.000000
0.780392 0.690196 0.000000
0.819608 0.690196 0.000000
0.847059 0.690196 0.000000
0.890196 0.690196 0.000000
0.921569 0.690196 0.000000
0.956863 0.694118 0.000000
1.000000 0.690196 0.000000
1.000000 0.690196 0.000000
1.000000 0.686275 0.000000
0.003922 0.729412 0.000000
0.003922 0.729412 0.000000
0.043137 0.725490 0.000000
0.074510 0.729412 0.000000
0.109804 0.729412 0.000000
0.145098 0.729412 0.000000
0.184314 0.733333 0.000000
0.211765 0.733333 0.000000
0.250980 0.729412 0.000000
0.282353 0.737255 0.000000
0.317647 0.733333 0.000000
0.352941 0.729412 0.000000
0.388235 0.729412 0.000000
0.415686 0.729412 0.000000
0.454902 0.729412 0.000000
0.482353 0.729412 0.000000
0.517647 0.725490 0.000000
0.556863 0.729412 0.000000
0.584314 0.729412 0.000000
0.615686 0.729412 0.000000
0.650980 0.725490 0.000000
0.686275 0.725490 0.000000
0.713725 0.725490 0.000000
0.752941 0.721569 0.000000
0.776471 0.725490 0.000000
0.823529 0.725490 0.000000
0.858824 0.721569 0.000000
0.886275 0.725490 0.000000
0.925490 0.717647 0.000000
0.956863 0.725490 0.000000
0.992157 0.721569 0.000000
1.000000 0.725490 0.000000
1.000000 0.725490 0.000000
0.000000 0.760784 0.000000
0.003922 0.764706 0.000000
0.039216 0.764706 0.000000
0.070588 0.764706 0.000000
0.105882 0.764706 0.000000
0.137255 0.768627 0.000000
0.180392 0.764706 0.000000
0.211765 0.768627 0.000000
0.247059 0.768627 0.000000
0.278431 0.764706 0.000000
0.313725 0.764706 0.000000
0.341176 0.764706 0.000000
0.380392 0.760784 0.000000
0.407843 0.764706 0.000000
0.443137 0.760784 0.000000
0.482353 0.764706 0.000000
0.517647 0.760784 0.000000
0.545098 0.764706 0.000000
0.580392 0.760784 0.000000
0.611765 0.760784 0.000000
0.639216 0.760784 0.000000
0.686275 0.756863 0.000000
0.717647 0.756863 0.000000
0.756863 0.756863 0.000000
0.788235 0.756863 0.000000
0.815686 0.760784 0.000000
0.854902 0.752941 0.000000
0.886275 0.756863 0.000000
0.921569 0.756863 0.000000
0.956863 0.756863 0.000000
0.996078 0.760784 0.000000
1.000000 0.760784 0.000000
1.000000 0.756863 0.000000
0.000000 0.800000 0.000000
0.003922 0.800000 0.000000
0.035294 0.796078 0.000000
0.062745 0.800000 0.000000
0.109804 0.800000 0.000000
0.141176 0.803922 0.000000
0.176471 0.803922 0.000000
0.211765 0.800000 0.000000
0.243137 0.800000 0.000000
0.274510 0.800000 0.000000
0.313725 0.796078 0.000000
0.341176 0.800000 0.000000
0.376471 0.796078 0.000000
0.415686 0.800000 0.000000
0.447059 0.796078 0.000000
0.474510 0.800000 0.000000
0.517647 0.796078 0.000000
0.545098 0.796078 0.000000
0.584314 0.792157 0.000000
0.611765 0.792157 0.000000
0.647059 0.792157 0.000000
0.686275 0.792157 0.000000
0.721569 0.792157 0.000000
0.749020 0.796078 0.000000
0.788235 0.788235 0.000000
0.815686 0.792157 0.000000
0.850980 0.788235 0.000000
0.890196 0.792157 0.000000
0.929412 0.796078 0.000000
0.956863 0.796078 0.000000
0.996078 0.792157 0.000000
1.000000 0.792157 0.000000
1.000000 0.792157 0.000000
0.000000 0.831373 0.000000
0.000000 0.835294 0.000000
0.035294 0.827451 0.000000
0.062745 0.831373 0.000000
0.105882 0.839216 0.000000
0.141176 0.835294 0.000000
0.176471 0.835294 0.000000
0.203922 0.835294 0.000000
0.243137 0.831373 0.000000
0.270588 0.835294 0.000000
0.305882 0.831373 0.000000
0.345098 0.835294 0.000000
0.380392 0.831373 0.000000
0.407843 0.835294 0.000000
0.447059 0.827451 0.000000
0.474510 0.831373 0.000000
0.517647 0.827451 0.000000
0.545098 0.827451 0.000000
0.576471 0.827451 0.000000
0.615686 0.827451 0.000000
0.650980 0.827451 0.000000
0.678431 0.831373 0.000000
0.717647 0.823529 0.000000
0.745098 0.823529 0.000000
0.780392 0.823529 0.000000
0.815686 0.819608 0.000000
0.850980 0.823529 0.000000
0.886275 0.831373 0.000000
0.925490 0.827451 0.000000
0.956863 0.827451 0.000000
0.988235 0.827451 0.000000
1.000000 0.827451 0.000000
1.000000 0.823529 0.000000
0.000000 0.862745 0.000000
0.000000 0.866667 0.000000
0.035294 0.870588 0.000000
0.074510 0.870588 0.000000
0.105882 0.870588 0.000000
0.133333 0.870588 0.000000
0.176471 0.866667 0.000000
0.203922 0.866667 0.000000
0.239216 0.866667 0.000000
0.274510 0.870588 0.000000
0.309804 0.866667 0.000000
0.337255 0.870588 0.000000
0.380392 0.862745 0.000000
0.407843 0.866667 0.000000
0.447059 0.862745 0.000000
0.482353 0.858824 0.000000
0.509804 0.862745 0.000000
0.549020 0.862745 0.000000
0.580392 0.862745 0.000000
0.611765 0.862745 0.000000
